X:134
T: ES GEHT DURCH ALLE LANDE
N: B0625
O: Europa, Mitteleuropa, Deutschland
R: Kinder -, Wiegen - Lied
M: 4/4
L: 1/8
K: F
c2 | A2c2A2c2 | f4c2
c2 | d2c2B2A2 | G4z2
c2 | A2c2A2c2 | f4e2
e2 | f2d2c2=B2 | c4z2
c2 | f3cA2F2 | d3BB2
d2 | c2B2A2G2 | c4cBGA | F4z2

@@@ Tune index: 2352
